X: 2
T: Missa Adieu mes amours / Gloria
N: Derived from Obr1001b-Missa_Adieu_mes_amours-Gloria.krn
C: Jacob Obrecht
%%abc-version 2.0
%%abcx-abcm2ps-target-version 5.9.1 (29 Sep 2008)
%%abc-creator hum2abc beta
%%abcx-conversion-date 2019/02/17 07:23:44
%%abc-edited-by Jesse Rodin
%%abc-edited-by Chris Gage 09-06-2012
%%abcx-initial-encoding-date 2013/05/07/
%%humdrum-veritas 2760561713
%%humdrum-veritas-data 2105273156
%%linebreak <none>
%%barnumbers 0
L: 1/4
M: 3/1
Q: 1/2=120
%%staves [1 2 3 4]
V: 1 clef=treble
V: 2 clef=treble-8
V: 3 clef=treble-8
V: 4 clef=bass
K: F
[V:1] G8D2E2 | 
[V:2] G8G4 | 
[V:3] z12 | 
[V:4] z12 | 
[V:1] D2G3AB4AG | 
[V:2] B6AGB2c2 | 
[V:3] z12 | 
[V:4] z12 | 
[V:1] F4c6BA | 
[V:2] d2f4_ed_e2d2- | 
[V:3] z12 | 
[V:4] z12 | 
[V:1] B2A3GG4F2 | 
[V:2] d2c4B2c2z2 | 
[V:3] z12 | 
[V:4] z12 | 
[V:1] G4B4B2B2- | 
[V:2] _e4_e2_e4dc | 
[V:3] z12 | 
[V:4] z12 | 
[V:1] B2AGA2G4F2 | 
[V:2] d2e2f2e3dd2- | 
[V:3] z12 | 
[V:4] z12 | 
[V:1] E4D8 | 
[V:2] d2^c2d4z2d2 | 
[V:3] z12 | 
[V:4] z4z2D,2F,2F,2 | 
[V:1] z2D2F2F2B,2B2 | 
[V:2] f2f2B2f4_ed | 
[V:3] z12 | 
[V:4] B,,12 | 
[V:1] c2d3cB4A2 | 
[V:2] _e2f2B4c4 | 
[V:3] z12 | 
[V:4] z2F,2G,4F,4 | 
[V:1] B8z4 | 
[V:2] B12 | 
[V:3] z12 | 
[V:4] G,3F,D,2_E,4D,C, | 
[V:1] d4d2d2c2A2 | 
[V:2] f4f2f4f2 | 
[V:3] z12 | 
[V:4] B,,8A,,4 | 
[V:1] B3A/G/F3EDCB,2- | 
[V:2] g3fd2f3edc | 
[V:3] z12 | 
[V:4] G,,4B,,8- | 
[V:1] B,CDEFGABcBAG | 
[V:2] B3cdef2edc2 | 
[V:3] z12 | 
[V:4] B,,8z4 | 
[V:1] B2A3GG4^F2 | 
[V:2] d3cd2B2A4 | 
[V:3] z12 | 
[V:4] z2F,4G,2D,4 | 
[V:1] G8E4 | 
[V:2] G8z4 | 
[V:3] G12 | 
[V:4] G,,6C,3B,,C,B,, | 
[V:1] D4z4d4- | 
[V:2] z4d8- | 
[V:3] B12 | 
[V:4] G,,6G,3F,G,F, | 
[V:1] d2cBA4c4- | 
[V:2] d2f3efec4- | 
[V:3] A12 | 
[V:4] D,6F,3E,F,E, | 
[V:1] c2BAG4B4- | 
[V:2] c2_e3d_edB4 | 
[V:3] G12 | 
[V:4] C,6_E,3D,E,D, | 
[V:1] B2AGF4A4- | 
[V:2] z2B3ABAF4- | 
[V:3] d12 | 
[V:4] B,,6D,3C,D,C, | 
[V:1] A2GFE4G4- | 
[V:2] F2c3BcBG3A | 
[V:3] z12 | 
[V:4] A,,6C,3B,,C,B,, | 
[V:1] G4z4z4 | 
[V:2] B3AF2G3BA2 | 
[V:3] z12 | 
[V:4] G,,3B,,A,,2G,,2D,3F, | 
[V:1] z12 | 
[V:2] G2B2A2G4F2 | 
[V:3] z12 | 
[V:4] E,2D,2C,2B,,2A,,4 | 
[V:1] G3ABGc4=B2 | 
[V:2] B6c2d4 | 
[V:3] z12 | 
[V:4] G,,2G,3F,F,E,G,4 | 
[V:1] c2A3GG4F2 | 
[V:2] c4F2G2A4 | 
[V:3] c12- | 
[V:4] C,2F,3E,E,D,F,4 | 
[V:1] G3F/G/A2F2GFED | 
[V:2] G4z4G4 | 
[V:3] c8B4 | 
[V:4] C,4F,,2F,3E,E,D, | 
[V:1] C2F4EDE4 | 
[V:2] c8c4 | 
[V:3] A4G8 | 
[V:4] F,4C,8 | 
[V:1] F8z2B,2 | 
[V:2] A2B2c4FGAB | 
[V:3] F12 | 
[V:4] F,,2B,,4A,,2B,,3D, | 
[V:1] A,2B,3CD2C4 | 
[V:2] c2d3BB4A2 | 
[V:3] z12 | 
[V:4] C,2B,,2D,3E,F,4 | 
[V:1] B,2F2GFB4A2 | 
[V:2] B8c4 | 
[V:3] z12 | 
[V:4] G,2D,2G,4F,4 | 
[V:1] B12 | 
[V:2] B8z4 | 
[V:3] z12 | 
[V:4] B,,2_E,4D,C,D,2G,,2 | 
[V:1] z12 | 
[V:2] B8A4 | 
[V:3] z12 | 
[V:4] z2G,,3A,,B,,2C,2D,2 | 
[V:1] z12 | 
[V:2] G2B3AG4^F2 | 
[V:3] z12 | 
[V:4] _E,2D,3C,B,,2A,,4 | 
[V:1] B8A4 | 
[V:2] G4z2G4F2 | 
[V:3] z12 | 
[V:4] G,,8D,4 | 
[V:1] G2B3AG4F2 | 
[V:2] G2F2G4A4 | 
[V:3] z12 | 
[V:4] _E,2D,2E,4D,4 | 
[V:1] G2F2G4A3G/A/ | 
[V:2] G2d4c2d4 | 
[V:3] z2A4G4F2 | 
[V:4] _E,2D,2E,4D,4 | 
[V:1] B2A3GG4^F2 | 
[V:2] z2d4c2d4 | 
[V:3] G2F2G4A4 | 
[V:4] G,,2D,2_E,4D,4 | 
[V:1] G12 | 
[V:2] d12 | 
[V:3] G12 | 
[V:4] G,,8z4 | 
[V:1] z12 | 
[V:2] z12 | 
[V:3] z12 | 
[V:4] D,6D,2E,4 | 
[V:1] z12 | 
[V:2] A6A2B4 | 
[V:3] z12 | 
[V:4] D,4C,2D,4E,2 | 
[V:1] z12 | 
[V:2] A4G2A4B2 | 
[V:3] z12 | 
[V:4] F,3E,/D,/E,2F,2D,4 | 
[V:1] z12 | 
[V:2] c3B/A/B2c2A4 | 
[V:3] z12 | 
[V:4] C,4G,2G,4^F,2 | 
[V:1] B4B2B4AG | 
[V:2] G4d2d4c2 | 
[V:3] z12 | 
[V:4] G,4G,F,_E,D,E,4 | 
[V:1] F4F2F4ED | 
[V:2] d4dcBAB4 | 
[V:3] z12 | 
[V:4] D,4z2B,,2D,3E, | 
[V:1] C4D2F4ED | 
[V:2] A4z2F2A3B | 
[V:3] z12 | 
[V:4] F,4D,2D,4C,B,, | 
[V:1] E2C3DE2C2E2- | 
[V:2] c4A2A4GF | 
[V:3] z12 | 
[V:4] A,,4z2A,,2A,,4 | 
[V:1] EFG2E2G3AB2 | 
[V:2] E4z2E2E4 | 
[V:3] z12 | 
[V:4] z2C,2C,4z2E,2 | 
[V:1] G2B3cd2B2d2- | 
[V:2] z2G2G4z2B2 | 
[V:3] z12 | 
[V:4] E,4z2G,2G,4- | 
[V:1] dcBAB4A4- | 
[V:2] B4z2d2d4- | 
[V:3] z12 | 
[V:4] G,2G,,3A,,B,,C,D,2D,2- | 
[V:1] A2F4EDC4 | 
[V:2] d2D3EFGA2A2- | 
[V:3] z12 | 
[V:4] D,E,F,G,A,2A,3G,F,E, | 
[V:1] z2c4B2A2B2- | 
[V:2] ABcde2f3ed2- | 
[V:3] z12 | 
[V:4] F,3E,C,2D,2F,2G,2 | 
[V:1] B2AGF6B,2 | 
[V:2] d2c2d4z2d2- | 
[V:3] z12 | 
[V:4] E,4D,6G,,2 | 
[V:1] F3GA2B2A2B2- | 
[V:2] d2cBA2G2d3G | 
[V:3] z12 | 
[V:4] D,3E,F,2G,2F,2G,2- | 
[V:1] BGG4^F2G3=F | 
[V:2] B2c2A4G4- | 
[V:3] z12 | 
[V:4] G,2C,2D,4G,,4 | 
[V:1] E2D4C2D4 | 
[V:2] G4D2_E2D4 | 
[V:3] G12- | 
[V:4] G,,3A,,B,,G,,C,4=B,,2 | 
[V:1] G6B4AG | 
[V:2] _E6D2_E4 | 
[V:3] G12 | 
[V:4] C,4G,,4z4 | 
[V:1] d8z4 | 
[V:2] D4z4d4 | 
[V:3] B12- | 
[V:4] G,,6B,,4A,,G,, | 
[V:1] d8B4 | 
[V:2] d4B2d4_e2 | 
[V:3] B12 | 
[V:4] G,12 | 
[V:1] c8A4 | 
[V:2] c4A2c4d2 | 
[V:3] A12 | 
[V:4] F,12 | 
[V:1] B8G4 | 
[V:2] B4G2B4c2 | 
[V:3] G12 | 
[V:4] _E,12 | 
[V:1] A8F4 | 
[V:2] A2d4cBA4 | 
[V:3] d12- | 
[V:4] D,12 | 
[V:1] G8E4 | 
[V:2] G8G4 | 
[V:3] d8c4 | 
[V:4] G,,8C,4 | 
[V:1] D2E3DG4^F2 | 
[V:2] F2G3ABcd4- | 
[V:3] B2c3BAGA4 | 
[V:4] D,2C,2_E,4D,4 | 
[V:1] G12 ||  
[V:2] d12 ||  
[V:3] G12 ||  
[V:4] G,,12 ||  
[V:1]  [K:F] [K:clef=treble][M:2/1]A8 | 
[V:2]  [K:F] [K:clef=treble-8][M:2/1]D8 | 
[V:3]  [K:F] [K:clef=treble-8][M:2/1]z8 | 
[V:4]  [K:F] [K:clef=bass][M:2/1]z8 | 
[V:1] B4B2B2- | 
[V:2] z8 | 
[V:3] z8 | 
[V:4] z8 | 
[V:1] B2B4AG | 
[V:2] G8 | 
[V:3] z8 | 
[V:4] z8 | 
[V:1] F4B,2F2- | 
[V:2] d8- | 
[V:3] z8 | 
[V:4] z8 | 
[V:1] FEDCB,2F2- | 
[V:2] d8- | 
[V:3] z8 | 
[V:4] z8 | 
[V:1] FGA2D2A2- | 
[V:2] d8 | 
[V:3] z8 | 
[V:4] z8 | 
[V:1] A2GFE2G2- | 
[V:2] c8- | 
[V:3] z8 | 
[V:4] z8 | 
[V:1] GFEDE4 | 
[V:2] c8 | 
[V:3] z8 | 
[V:4] z8 | 
[V:1] (3D3EF2B,2B2- | 
[V:2] d4d2d2- | 
[V:3] z8 | 
[V:4] z8 | 
[V:1] B2AGA2B2 | 
[V:2] d2cBc2B2- | 
[V:3] z8 | 
[V:4] z8 | 
[V:1] B,2D4CB, | 
[V:2] BFB4AG | 
[V:3] z8 | 
[V:4] z8 | 
[V:1] C2B,2B3A/B/ | 
[V:2] A2G4FE | 
[V:3] z8 | 
[V:4] z8 | 
[V:1] A2G4FE | 
[V:2] F2G2z2B2- | 
[V:3] z8 | 
[V:4] z8 | 
[V:1] F2G2z2B2- | 
[V:2] B2AGA2B2 | 
[V:3] z8 | 
[V:4] z8 | 
[V:1] B2AGA2B2 | 
[V:2] G2d4cB | 
[V:3] z8 | 
[V:4] z8 | 
[V:1] G2d4cB | 
[V:2] c2d2B2f2- | 
[V:3] z8 | 
[V:4] z8 | 
[V:1] A2c3BAG | 
[V:2] f2ede2f2 | 
[V:3] z8 | 
[V:4] z8 | 
[V:1] B3AGFA2- | 
[V:2] d2_e3dcB | 
[V:3] z8 | 
[V:4] z8 | 
[V:1] AGG4^F2 | 
[V:2] c2B2A4 | 
[V:3] z8 | 
[V:4] z8 | 
[V:1] G8- | 
[V:2] G4c2c2- | 
[V:3] z8 | 
[V:4] z8 | 
[V:1] G8 | 
[V:2] c2B2c4 | 
[V:3] z8 | 
[V:4] G,,4C,2C,2- | 
[V:1] z8 | 
[V:2] z8 | 
[V:3] G8 | 
[V:4] C,2B,,2C,4 | 
[V:1] G4B2B2- | 
[V:2] z8 | 
[V:3] d8- | 
[V:4] G,,4G,2G,2- | 
[V:1] B2A2B2AG | 
[V:2] z8 | 
[V:3] d8- | 
[V:4] G,2F,2G,4 | 
[V:1] F4G2G2- | 
[V:2] A4B2B2- | 
[V:3] d8- | 
[V:4] D,4G,,2B,,2- | 
[V:1] G2F2G2FE | 
[V:2] B2A2B2AG | 
[V:3] d8- | 
[V:4] B,,C,D,2G,,4 | 
[V:1] D2d4cB | 
[V:2] F4G2G2- | 
[V:3] d8- | 
[V:4] D,4B,,2G,,2 | 
[V:1] A4G4 | 
[V:2] G2^F2G4- | 
[V:3] d8 | 
[V:4] D,4G,,4 | 
[V:1] z2c3BAG | 
[V:2] G4G4 | 
[V:3] c8 | 
[V:4] C,4_E,4 | 
[V:1] F6B,2 | 
[V:2] A2B4AG | 
[V:3] d8- | 
[V:4] D,4B,,4- | 
[V:1] F4G2B2- | 
[V:2] F4f4- | 
[V:3] d8 | 
[V:4] B,,8 | 
[V:1] B2AGA4 | 
[V:2] f8 | 
[V:3] c8 | 
[V:4] F,8 | 
[V:1] B4A4- | 
[V:2] d4_e4- | 
[V:3] B4c4- | 
[V:4] G,4C,4 | 
[V:1] A2G2G4- | 
[V:2] e2d2c2B2 | 
[V:3] c2B2G4 | 
[V:4] _E,8 | 
[V:1] G4^F4 | 
[V:2] d8- | 
[V:3] A8 | 
[V:4] D,8 | 
[V:1] G8 | 
[V:2] d8 | 
[V:3] G8- | 
[V:4] G,,8- | 
[V:1] z8 | 
[V:2] z8 | 
[V:3] G8 | 
[V:4] G,,8 | 
[V:1] G8- | 
[V:2] e8- | 
[V:3] z8 | 
[V:4] C,8- | 
[V:1] G4G4 | 
[V:2] e4c4 | 
[V:3] z8 | 
[V:4] C,4C,4 | 
[V:1] G8 | 
[V:2] c8 | 
[V:3] G8 | 
[V:4] E,8 | 
[V:1] A8- | 
[V:2] f8- | 
[V:3] d8- | 
[V:4] D,8- | 
[V:1] A4A4 | 
[V:2] f4f4 | 
[V:3] d8 | 
[V:4] D,4D,4 | 
[V:1] A4A4 | 
[V:2] f4f4 | 
[V:3] c8- | 
[V:4] F,4F,4 | 
[V:1] A8 | 
[V:2] f8 | 
[V:3] c8 | 
[V:4] F,8 | 
[V:1] B8 | 
[V:2] f8 | 
[V:3] d8 | 
[V:4] B,,8 | 
[V:1] A8 | 
[V:2] z4F4- | 
[V:3] c8 | 
[V:4] F,6E,2 | 
[V:1] D4E4 | 
[V:2] F4E4- | 
[V:3] B4A4- | 
[V:4] D,4C,4 | 
[V:1] F4G4 | 
[V:2] E2D2D4- | 
[V:3] A2G2G4- | 
[V:4] D,6C,B,, | 
[V:1] A8 | 
[V:2] D4C4 | 
[V:3] G4^F4 | 
[V:4] C,B,,A,,G,,A,,4 | 
[V:1] B6AG | 
[V:2] D8- | 
[V:3] G4B4 | 
[V:4] G,,8 | 
[V:1] F4G4 | 
[V:2] D8 | 
[V:3] A2B4AG | 
[V:4] z4G,,4 | 
[V:1] F2G2F2G2- | 
[V:2] z4d4- | 
[V:3] A2B2A2B2- | 
[V:4] D,8- | 
[V:1] G2^FEF4 | 
[V:2] d8 | 
[V:3] B2AGA4 | 
[V:4] D,8 | 
[V:1] G8- | 
[V:2] B6c2 | 
[V:3] G8- | 
[V:4] G,,8- | 
[V:1] G8 | 
[V:2] d8 | 
[V:3] G8 | 
[V:4] G,,8 | 
[V:1] z8 | 
[V:2] z8 | 
[V:3] z8 | 
[V:4] A,,4C,4- | 
[V:1] z8 | 
[V:2] z8 | 
[V:3] z8 | 
[V:4] C,2D,2B,,4 | 
[V:1] z8 | 
[V:2] A4c4- | 
[V:3] z8 | 
[V:4] A,,2C,3B,,A,,2- | 
[V:1] z8 | 
[V:2] c2d2B4 | 
[V:3] z8 | 
[V:4] A,,2G,,F,,G,,4 | 
[V:1] A4c4- | 
[V:2] A2c3BA2- | 
[V:3] z8 | 
[V:4] A,,4z4 | 
[V:1] c2d2B4 | 
[V:2] A2GFG4 | 
[V:3] z8 | 
[V:4] z8 | 
[V:1] A2c3BA2- | 
[V:2] A3Bc2d2- | 
[V:3] z8 | 
[V:4] z8 | 
[V:1] A2GFG4 | 
[V:2] dcBAB4 | 
[V:3] z8 | 
[V:4] z8 | 
[V:1] A3GF2E2- | 
[V:2] A4z4 | 
[V:3] z8 | 
[V:4] D,3E,F,2G,2- | 
[V:1] EDD4^C2 | 
[V:2] z8 | 
[V:3] z8 | 
[V:4] G,F,E,D,E,4 | 
[V:1] D3EF2G2- | 
[V:2] A3GF2E2- | 
[V:3] z8 | 
[V:4] D,4z4 | 
[V:1] GFEDE4 | 
[V:2] EDD4^C2 | 
[V:3] z8 | 
[V:4] z8 | 
[V:1] D4z4 | 
[V:2] D3EF2G2- | 
[V:3] z8 | 
[V:4] A,3G,F,2E,2- | 
[V:1] z8 | 
[V:2] GFEDE4 | 
[V:3] z8 | 
[V:4] E,D,D,4^C,2 | 
[V:1] z8 | 
[V:2] D2F3GA2 | 
[V:3] z8 | 
[V:4] D,3E,F,2D,2- | 
[V:1] z8 | 
[V:2] F3GA2F2- | 
[V:3] z8 | 
[V:4] D,E,F,2D,3E, | 
[V:1] z8 | 
[V:2] FGA2B2A2- | 
[V:3] z8 | 
[V:4] F,2D,2B,,2C,2- | 
[V:1] z8 | 
[V:2] AGG4^F2 | 
[V:3] z8 | 
[V:4] C,B,,A,,G,,A,,4 | 
[V:1] z2G,3A,B,C | 
[V:2] G3ABcd2- | 
[V:3] z8 | 
[V:4] G,,8- | 
[V:1] DG,B,3CDE | 
[V:2] d2G2B3c | 
[V:3] z8 | 
[V:4] G,,8 | 
[V:1] FB,D3EFG | 
[V:2] def2B2d2- | 
[V:3] z8 | 
[V:4] D,8- | 
[V:1] ADF3GAB | 
[V:2] defga2f2- | 
[V:3] z8 | 
[V:4] D,8 | 
[V:1] c2B4A2 | 
[V:2] fed2c4 | 
[V:3] z8 | 
[V:4] z4F,4 | 
[V:1] B4z2d2- | 
[V:2] B6AG | 
[V:3] d8- | 
[V:4] G,6F,E, | 
[V:1] d2cBd2B2- | 
[V:2] F8 | 
[V:3] d8- | 
[V:4] D,8 | 
[V:1] B2AGB2A2- | 
[V:2] z8 | 
[V:3] d8 | 
[V:4] G,6F,2- | 
[V:1] A2GFA2G2- | 
[V:2] z8 | 
[V:3] c8 | 
[V:4] F,2E,D,F,2_E,2- | 
[V:1] G2FEG2F2- | 
[V:2] z8 | 
[V:3] B8 | 
[V:4] E,2D,C,_E,2D,2- | 
[V:1] F2_EDF2E2- | 
[V:2] z8 | 
[V:3] A8 | 
[V:4] D,2C,B,,D,2C,2- | 
[V:1] E2DC_E2D2- | 
[V:2] c4B4- | 
[V:3] G6F2 | 
[V:4] C,2B,,A,,G,,2B,,2- | 
[V:1] D2G4^F2 | 
[V:2] B2d3cBA | 
[V:3] G2B2A4 | 
[V:4] B,,2A,,G,,D,4 | 
[V:1] G6B2- | 
[V:2] B2G2B3c | 
[V:3] G8 | 
[V:4] G,,8- | 
[V:1] B2AGd4 | 
[V:2] d4G4 | 
[V:3] G4B4 | 
[V:4] G,,8 | 
[V:1] c4B4 | 
[V:2] z8 | 
[V:3] A4G4 | 
[V:4] z8 | 
[V:1] A8 | 
[V:2] z8 | 
[V:3] d8- | 
[V:4] z8 | 
[V:1] z8 | 
[V:2] A6B2 | 
[V:3] d8 | 
[V:4] D,4F,4 | 
[V:1] z8 | 
[V:2] c4d4 | 
[V:3] z8 | 
[V:4] E,4D,4 | 
[V:1] z8 | 
[V:2] e2f4ed | 
[V:3] z8 | 
[V:4] A,8 | 
[V:1] z8 | 
[V:2] f2e4dc | 
[V:3] z8 | 
[V:4] A,8 | 
[V:1] z8 | 
[V:2] e2d3cBA | 
[V:3] z8 | 
[V:4] G,6F,2 | 
[V:1] z8 | 
[V:2] G2c4=B2 | 
[V:3] z8 | 
[V:4] E,4D,4 | 
[V:1] c3BA2G2- | 
[V:2] c8 | 
[V:3] c4c2B2 | 
[V:4] C,8- | 
[V:1] GFF4E2 | 
[V:2] z4c4 | 
[V:3] A4G4 | 
[V:4] C,8 | 
[V:1] F6E2 | 
[V:2] A3B/c/d2c2- | 
[V:3] F8- | 
[V:4] z8 | 
[V:1] D2CB,C4 | 
[V:2] cBB4AG | 
[V:3] F8 | 
[V:4] z8 | 
[V:1] B,2F4ED | 
[V:2] F4z4 | 
[V:3] z8 | 
[V:4] D,4F,4 | 
[V:1] C2G2F2A2- | 
[V:2] G4A4- | 
[V:3] z8 | 
[V:4] E,4D,4 | 
[V:1] ABc3BAG | 
[V:2] A2B2c4 | 
[V:3] z8 | 
[V:4] A,8 | 
[V:1] B6AG | 
[V:2] d2e3df2- | 
[V:3] G4B4 | 
[V:4] G,6F,2 | 
[V:1] F4G3A | 
[V:2] fed4^c2 | 
[V:3] A4G4 | 
[V:4] D,4E,4 | 
[V:1] B2A4GF | 
[V:2] d2cBA4 | 
[V:3] d8 | 
[V:4] D,8 | 
[V:1] E2A2G2B2- | 
[V:2] ABcde2d2- | 
[V:3] c6B2 | 
[V:4] A,,4C,2G,,2- | 
[V:1] BAG4^F2 | 
[V:2] dcd2c2A2 | 
[V:3] G4A4 | 
[V:4] G,,A,,B,,2C,2D,2 | 
[V:1] G8 |]  
[V:2] B8 & d8 |]  
[V:3] G8 |]  
[V:4] G,,8 |]  



